X: 1
T: the Cameron Highlanders
C: J.S.Skinner
R: march
D: The Boys of the Lough, Transatlantic TRA296
D: Aly Bain on BOL Philo album
N: BSFC II-46,
N: H&C p.30
N: Hunter 347
N: Logie  Collection
N: SV p.30
N: Skinner
Z: John Chambers <jc@trillian.mit.edu>
M: C|
L: 1/8
K: A
|: {g}a2 \
|| "A"~A2cA cecA | {fa}f2e2 e2{g}a2 \
| "A"~A2cA cecA | "E7"{ce}c2B2 B2{g}a2 |
| "A"~A2cA cecA | f2e2 e2{g}a2 \
| faea "E7"caBa | "A"{ce}c2A2 A2 :|
|: {g}a2 \
|| "A"f2ed c2BA | {fa}c2A2 A2{g}a2 \
| "A"f2ed c2BA | "E7"{ce}c2B2 B2{g}a2 |
| "A"f2ed c2BA | cAeA "D"fga2 \
| faea "E7"caBa | "A"{ce}c2A2 A2 :|
